www/images/iframe-0.svg

<svg fill="none" height="16" viewBox="0 0 16 16" width="16" xmlns="http://www.w3.org/2000/svg"><path d="m12.5833 3h-9.16663c-.23012 0-.41667.22386-.41667.5v9c0 .2761.18655.5.41667.5h9.16663c.2302 0 .4167-.2239.4167-.5v-9c0-.27614-.1865-.5-.4167-.5z" stroke="#f36313" stroke-linecap="round" stroke-linejoin="round"/><g fill="#f36313"><path d="m5.25 6c.41421 0 .75-.33579.75-.75s-.33579-.75-.75-.75-.75.33579-.75.75.33579.75.75.75z"/><path d="m7.75 6c.41421 0 .75-.33579.75-.75s-.33579-.75-.75-.75-.75.33579-.75.75.33579.75.75.75z"/></g></svg>

<svg width="16" height="16" viewBox="0 0 16 16" fill="none" xmlns="http://www.w3.org/2000/svg">
<path d="M12.5833 3H3.41667C3.18655 3 3 3.22386 3 3.5V12.5C3 12.7761 3.18655 13 3.41667 13H12.5833C12.8135 13 13 12.7761 13 12.5V3.5C13 3.22386 12.8135 3 12.5833 3Z" stroke="#F36313" stroke-linecap="round" stroke-linejoin="round"/>
<path d="M5.25 6C5.66421 6 6 5.66421 6 5.25C6 4.83579 5.66421 4.5 5.25 4.5C4.83579 4.5 4.5 4.83579 4.5 5.25C4.5 5.66421 4.83579 6 5.25 6Z" fill="#F36313"/>
<path d="M7.75 6C8.16421 6 8.5 5.66421 8.5 5.25C8.5 4.83579 8.16421 4.5 7.75 4.5C7.33579 4.5 7 4.83579 7 5.25C7 5.66421 7.33579 6 7.75 6Z" fill="#F36313"/>
</svg>
